icon-themes/sifr_svg/sfx2/res/plus.svg

<svg viewBox="0 0 9 9" xmlns="http://www.w3.org/2000/svg"><path d="m0 0v9h9v-9zm1 1h7v7h-7zm3 1v2h-2v1h2v2h1v-2h2v-1h-2v-2z" fill="#555753"/></svg>

<svg xmlns="http://www.w3.org/2000/svg" viewBox="0 0 9 9">
 <path
   style="fill:#555753"
   d="M 0 0 L 0 9 L 9 9 L 9 0 L 0 0 z M 1 1 L 8 1 L 8 8 L 1 8 L 1 1 z M 4 2 L 4 4 L 2 4 L 2 5 L 4 5 L 4 7 L 5 7 L 5 5 L 7 5 L 7 4 L 5 4 L 5 2 L 4 2 z "
   />
</svg>
